modules/framework7-icons/icons/calendar_fill.svg

<?xml version="1.0" encoding="UTF-8"?>
<svg width="44px" height="44px" viewBox="0 0 44 44" version="1.1" xmlns="http://www.w3.org/2000/svg" xmlns:xlink="http://www.w3.org/1999/xlink">
    <!-- Generator: Sketch 40.1 (33804) - http://www.bohemiancoding.com/sketch -->
    <title>calendar_fill</title>
    <desc>Created with Sketch.</desc>
    <defs></defs>
    <g id="Page-1" stroke="none" stroke-width="1" fill="none" fill-rule="evenodd">
        <g id="calendar_fill" transform="translate(-0.000000, 0.000000)" fill="#000000">
            <path d="M0,4.00180999 C0,1.79167136 1.79309123,0 4.00180999,0 L39.99819,0 C42.2083286,0 44,1.79309123 44,4.00180999 L44,39.99819 C44,42.2083286 42.2069088,44 39.99819,44 L4.00180999,44 C1.79167136,44 0,42.2069088 0,39.99819 L0,4.00180999 Z M29.5,27 C30.3284271,27 31,26.3284271 31,25.5 C31,24.6715729 30.3284271,24 29.5,24 C28.6715729,24 28,24.6715729 28,25.5 C28,26.3284271 28.6715729,27 29.5,27 Z M22.5,27 C23.3284271,27 24,26.3284271 24,25.5 C24,24.6715729 23.3284271,24 22.5,24 C21.6715729,24 21,24.6715729 21,25.5 C21,26.3284271 21.6715729,27 22.5,27 Z M36.5,27 C37.3284271,27 38,26.3284271 38,25.5 C38,24.6715729 37.3284271,24 36.5,24 C35.6715729,24 35,24.6715729 35,25.5 C35,26.3284271 35.6715729,27 36.5,27 Z M22.5,36 C23.3284271,36 24,35.3284271 24,34.5 C24,33.6715729 23.3284271,33 22.5,33 C21.6715729,33 21,33.6715729 21,34.5 C21,35.3284271 21.6715729,36 22.5,36 Z M29.5,36 C30.3284271,36 31,35.3284271 31,34.5 C31,33.6715729 30.3284271,33 29.5,33 C28.6715729,33 28,33.6715729 28,34.5 C28,35.3284271 28.6715729,36 29.5,36 Z M29.5,18 C30.3284271,18 31,17.3284271 31,16.5 C31,15.6715729 30.3284271,15 29.5,15 C28.6715729,15 28,15.6715729 28,16.5 C28,17.3284271 28.6715729,18 29.5,18 Z M36.5,18 C37.3284271,18 38,17.3284271 38,16.5 C38,15.6715729 37.3284271,15 36.5,15 C35.6715729,15 35,15.6715729 35,16.5 C35,17.3284271 35.6715729,18 36.5,18 Z M15.5,27 C16.3284271,27 17,26.3284271 17,25.5 C17,24.6715729 16.3284271,24 15.5,24 C14.6715729,24 14,24.6715729 14,25.5 C14,26.3284271 14.6715729,27 15.5,27 Z M15.5,36 C16.3284271,36 17,35.3284271 17,34.5 C17,33.6715729 16.3284271,33 15.5,33 C14.6715729,33 14,33.6715729 14,34.5 C14,35.3284271 14.6715729,36 15.5,36 Z M22.5,18 C23.3284271,18 24,17.3284271 24,16.5 C24,15.6715729 23.3284271,15 22.5,15 C21.6715729,15 21,15.6715729 21,16.5 C21,17.3284271 21.6715729,18 22.5,18 Z M8.5,27 C9.32842712,27 10,26.3284271 10,25.5 C10,24.6715729 9.32842712,24 8.5,24 C7.67157288,24 7,24.6715729 7,25.5 C7,26.3284271 7.67157288,27 8.5,27 Z M8.5,36 C9.32842712,36 10,35.3284271 10,34.5 C10,33.6715729 9.32842712,33 8.5,33 C7.67157288,33 7,33.6715729 7,34.5 C7,35.3284271 7.67157288,36 8.5,36 Z M15.5,18 C16.3284271,18 17,17.3284271 17,16.5 C17,15.6715729 16.3284271,15 15.5,15 C14.6715729,15 14,15.6715729 14,16.5 C14,17.3284271 14.6715729,18 15.5,18 Z M2,4.00591905 C2,2.89808055 2.89153983,2 3.99729162,2 L40.0027084,2 C41.1057821,2 42,2.88655484 42,4.00591905 L42,6.99408095 C42,8.10191945 41.1084602,9 40.0027084,9 L3.99729162,9 C2.89421792,9 2,8.11344516 2,6.99408095 L2,4.00591905 Z" id="Combined-Shape"></path>
        </g>
    </g>
</svg>

<svg width="44" height="44" viewBox="0 0 44 44" xmlns="http://www.w3.org/2000/svg"><path d="M0 4.002A4.003 4.003 0 0 1 4.002 0h35.996A4.003 4.003 0 0 1 44 4.002v35.996A4.003 4.003 0 0 1 39.998 44H4.002A4.003 4.003 0 0 1 0 39.998V4.002zM29.5 27a1.5 1.5 0 1 0 0-3 1.5 1.5 0 0 0 0 3zm-7 0a1.5 1.5 0 1 0 0-3 1.5 1.5 0 0 0 0 3zm14 0a1.5 1.5 0 1 0 0-3 1.5 1.5 0 0 0 0 3zm-14 9a1.5 1.5 0 1 0 0-3 1.5 1.5 0 0 0 0 3zm7 0a1.5 1.5 0 1 0 0-3 1.5 1.5 0 0 0 0 3zm0-18a1.5 1.5 0 1 0 0-3 1.5 1.5 0 0 0 0 3zm7 0a1.5 1.5 0 1 0 0-3 1.5 1.5 0 0 0 0 3zm-21 9a1.5 1.5 0 1 0 0-3 1.5 1.5 0 0 0 0 3zm0 9a1.5 1.5 0 1 0 0-3 1.5 1.5 0 0 0 0 3zm7-18a1.5 1.5 0 1 0 0-3 1.5 1.5 0 0 0 0 3zm-14 9a1.5 1.5 0 1 0 0-3 1.5 1.5 0 0 0 0 3zm0 9a1.5 1.5 0 1 0 0-3 1.5 1.5 0 0 0 0 3zm7-18a1.5 1.5 0 1 0 0-3 1.5 1.5 0 0 0 0 3zM2 4.006A2 2 0 0 1 3.997 2h36.006C41.106 2 42 2.887 42 4.006v2.988A2 2 0 0 1 40.003 9H3.997A1.994 1.994 0 0 1 2 6.994V4.006z" fill="#000" fill-rule="evenodd"/></svg>
